images/5461315.svg

<?xml version="1.0" encoding="UTF-8"?>
<svg xmlns="http://www.w3.org/2000/svg" xmlns:xlink="http://www.w3.org/1999/xlink" width="300pt" height="300pt" viewBox="0 0 300 300" version="1.1">
<defs>
<g>
<symbol overflow="visible" id="glyph0-0">
<path style="stroke:none;" d="M 0.453125 1.59375 L 0.453125 -6.34375 L 4.953125 -6.34375 L 4.953125 1.59375 Z M 0.953125 1.09375 L 4.453125 1.09375 L 4.453125 -5.84375 L 0.953125 -5.84375 Z M 0.953125 1.09375 "/>
</symbol>
<symbol overflow="visible" id="glyph0-1">
<path style="stroke:none;" d="M 0.890625 -6.5625 L 2.078125 -6.5625 L 4.984375 -1.078125 L 4.984375 -6.5625 L 5.84375 -6.5625 L 5.84375 0 L 4.65625 0 L 1.75 -5.484375 L 1.75 0 L 0.890625 0 Z M 0.890625 -6.5625 "/>
</symbol>
<symbol overflow="visible" id="glyph0-2">
<path style="stroke:none;" d="M 0.890625 -6.5625 L 1.765625 -6.5625 L 1.765625 -3.875 L 5 -3.875 L 5 -6.5625 L 5.890625 -6.5625 L 5.890625 0 L 5 0 L 5 -3.125 L 1.765625 -3.125 L 1.765625 0 L 0.890625 0 Z M 0.890625 -6.5625 "/>
</symbol>
<symbol overflow="visible" id="glyph0-3">
<path style="stroke:none;" d="M 3.546875 -5.953125 C 2.898438 -5.953125 2.382812 -5.710938 2 -5.234375 C 1.625 -4.753906 1.4375 -4.101562 1.4375 -3.28125 C 1.4375 -2.445312 1.625 -1.789062 2 -1.3125 C 2.382812 -0.832031 2.898438 -0.59375 3.546875 -0.59375 C 4.191406 -0.59375 4.703125 -0.832031 5.078125 -1.3125 C 5.453125 -1.789062 5.640625 -2.445312 5.640625 -3.28125 C 5.640625 -4.101562 5.453125 -4.753906 5.078125 -5.234375 C 4.703125 -5.710938 4.191406 -5.953125 3.546875 -5.953125 Z M 3.546875 -6.6875 C 4.460938 -6.6875 5.195312 -6.375 5.75 -5.75 C 6.300781 -5.132812 6.578125 -4.3125 6.578125 -3.28125 C 6.578125 -2.238281 6.300781 -1.410156 5.75 -0.796875 C 5.195312 -0.179688 4.460938 0.125 3.546875 0.125 C 2.617188 0.125 1.878906 -0.179688 1.328125 -0.796875 C 0.773438 -1.410156 0.5 -2.238281 0.5 -3.28125 C 0.5 -4.3125 0.773438 -5.132812 1.328125 -5.75 C 1.878906 -6.375 2.617188 -6.6875 3.546875 -6.6875 Z M 3.546875 -6.6875 "/>
</symbol>
</g>
</defs>
<g id="surface47041">
<rect x="0" y="0" width="300" height="300" style="fill:rgb(100%,100%,100%);fill-opacity:1;stroke:none;"/>
<path style="fill:none;stroke-width:1.2;stroke-linecap:butt;stroke-linejoin:miter;stroke:rgb(0%,0%,0%);stroke-opacity:1;stroke-miterlimit:10;" d="M 264.75 83.566406 L 252.976562 86.40625 "/>
<path style="fill:none;stroke-width:1.2;stroke-linecap:butt;stroke-linejoin:miter;stroke:rgb(0%,0%,100%);stroke-opacity:1;stroke-miterlimit:10;" d="M 252.976562 86.40625 L 241.199219 89.246094 "/>
<path style="fill:none;stroke-width:1.2;stroke-linecap:butt;stroke-linejoin:miter;stroke:rgb(0%,0%,100%);stroke-opacity:1;stroke-miterlimit:10;" d="M 241.199219 89.246094 L 237.773438 100.863281 "/>
<path style="fill:none;stroke-width:1.2;stroke-linecap:butt;stroke-linejoin:miter;stroke:rgb(0%,0%,0%);stroke-opacity:1;stroke-miterlimit:10;" d="M 237.773438 100.863281 L 234.34375 112.480469 "/>
<path style=" stroke:none;fill-rule:nonzero;fill:rgb(100%,100%,100%);fill-opacity:1;" d="M 234.199219 83.746094 L 248.199219 83.746094 L 248.199219 94.746094 L 234.199219 94.746094 Z M 234.199219 83.746094 "/>
<g style="fill:rgb(0%,0%,100%);fill-opacity:1;">
  <use xlink:href="#glyph0-1" x="234.199219" y="92.40918"/>
  <use xlink:href="#glyph0-2" x="241.176758" y="92.40918"/>
</g>
<path style="fill:none;stroke-width:1.2;stroke-linecap:butt;stroke-linejoin:miter;stroke:rgb(0%,0%,0%);stroke-opacity:1;stroke-miterlimit:10;" d="M 232.28125 114.445312 L 240.625 123.222656 "/>
<path style="fill:none;stroke-width:1.2;stroke-linecap:butt;stroke-linejoin:miter;stroke:rgb(100%,0%,0%);stroke-opacity:1;stroke-miterlimit:10;" d="M 240.625 123.222656 L 248.972656 132 "/>
<path style="fill:none;stroke-width:1.2;stroke-linecap:butt;stroke-linejoin:miter;stroke:rgb(0%,0%,0%);stroke-opacity:1;stroke-miterlimit:10;" d="M 236.410156 110.515625 L 244.757812 119.292969 "/>
<path style="fill:none;stroke-width:1.2;stroke-linecap:butt;stroke-linejoin:miter;stroke:rgb(100%,0%,0%);stroke-opacity:1;stroke-miterlimit:10;" d="M 244.757812 119.292969 L 253.105469 128.070312 "/>
<path style=" stroke:none;fill-rule:nonzero;fill:rgb(0%,0%,0%);fill-opacity:1;" d="M 210.796875 118.160156 L 235.347656 116.636719 L 233.34375 108.324219 Z M 210.796875 118.160156 "/>
<path style=" stroke:none;fill-rule:nonzero;fill:rgb(100%,100%,100%);fill-opacity:1;" d="M 247.039062 124.535156 L 255.039062 124.535156 L 255.039062 135.535156 L 247.039062 135.535156 Z M 247.039062 124.535156 "/>
<g style="fill:rgb(100%,0%,0%);fill-opacity:1;">
  <use xlink:href="#glyph0-3" x="247.039062" y="133.198242"/>
</g>
<path style="fill:none;stroke-width:1.2;stroke-linecap:butt;stroke-linejoin:miter;stroke:rgb(0%,0%,0%);stroke-opacity:1;stroke-miterlimit:10;" d="M 210.796875 118.160156 L 187.5625 111.304688 "/>
<path style="fill:none;stroke-width:1.2;stroke-linecap:butt;stroke-linejoin:miter;stroke:rgb(0%,0%,0%);stroke-opacity:1;stroke-miterlimit:10;" d="M 193.242188 134.855469 L 210.796875 118.160156 "/>
<path style="fill:none;stroke-width:1;stroke-linecap:butt;stroke-linejoin:miter;stroke:rgb(0%,0%,0%);stroke-opacity:1;stroke-miterlimit:10;" d="M 193.242188 134.855469 L 193.242188 134.855469 M 193.054688 131.859375 L 192.042969 132.105469 M 192.871094 128.867188 L 190.84375 129.355469 M 192.683594 125.871094 L 189.640625 126.605469 M 192.496094 122.878906 L 188.441406 123.855469 M 192.3125 119.882812 L 187.242188 121.105469 M 192.125 116.890625 L 186.042969 118.355469 M 191.941406 113.894531 L 184.84375 115.605469 M 191.753906 110.902344 L 183.644531 112.859375 M 191.714844 110.304688 L 183.40625 112.308594 "/>
<path style="fill:none;stroke-width:1.2;stroke-linecap:butt;stroke-linejoin:miter;stroke:rgb(0%,0%,0%);stroke-opacity:1;stroke-miterlimit:10;" d="M 193.242188 134.855469 L 186.386719 158.089844 "/>
<path style="fill:none;stroke-width:1;stroke-linecap:butt;stroke-linejoin:miter;stroke:rgb(0%,0%,0%);stroke-opacity:1;stroke-miterlimit:10;" d="M 186.386719 158.089844 L 186.386719 158.089844 M 188.042969 160.589844 L 188.800781 159.871094 M 189.703125 163.089844 L 191.210938 161.652344 M 191.359375 165.589844 L 193.625 163.433594 M 193.019531 168.089844 L 196.039062 165.214844 M 194.675781 170.589844 L 198.453125 166.996094 M 196.335938 173.089844 L 200.867188 168.78125 M 197.992188 175.589844 L 203.28125 170.5625 M 199.648438 178.089844 L 205.695312 172.34375 M 199.980469 178.589844 L 206.175781 172.699219 "/>
<path style="fill:none;stroke-width:1.2;stroke-linecap:butt;stroke-linejoin:miter;stroke:rgb(0%,0%,0%);stroke-opacity:1;stroke-miterlimit:10;" d="M 186.386719 158.089844 L 174.609375 160.929688 "/>
<path style="fill:none;stroke-width:1.2;stroke-linecap:butt;stroke-linejoin:miter;stroke:rgb(0%,0%,100%);stroke-opacity:1;stroke-miterlimit:10;" d="M 174.609375 160.929688 L 162.835938 163.769531 "/>
<path style="fill:none;stroke-width:1.2;stroke-linecap:butt;stroke-linejoin:miter;stroke:rgb(0%,0%,0%);stroke-opacity:1;stroke-miterlimit:10;" d="M 203.078125 175.644531 L 196.222656 198.878906 "/>
<path style="fill:none;stroke-width:1.2;stroke-linecap:butt;stroke-linejoin:miter;stroke:rgb(0%,0%,0%);stroke-opacity:1;stroke-miterlimit:10;" d="M 207.859375 179.582031 L 202.375 198.167969 "/>
<path style="fill:none;stroke-width:1.2;stroke-linecap:butt;stroke-linejoin:miter;stroke:rgb(0%,0%,0%);stroke-opacity:1;stroke-miterlimit:10;" d="M 226.628906 169.964844 L 203.078125 175.644531 "/>
<path style="fill:none;stroke-width:1.2;stroke-linecap:butt;stroke-linejoin:miter;stroke:rgb(0%,0%,0%);stroke-opacity:1;stroke-miterlimit:10;" d="M 196.222656 198.878906 L 212.917969 216.433594 "/>
<path style="fill:none;stroke-width:1.2;stroke-linecap:butt;stroke-linejoin:miter;stroke:rgb(0%,0%,0%);stroke-opacity:1;stroke-miterlimit:10;" d="M 212.917969 216.433594 L 236.46875 210.753906 "/>
<path style="fill:none;stroke-width:1.2;stroke-linecap:butt;stroke-linejoin:miter;stroke:rgb(0%,0%,0%);stroke-opacity:1;stroke-miterlimit:10;" d="M 213.9375 210.324219 L 232.777344 205.78125 "/>
<path style="fill:none;stroke-width:1.2;stroke-linecap:butt;stroke-linejoin:miter;stroke:rgb(0%,0%,0%);stroke-opacity:1;stroke-miterlimit:10;" d="M 236.46875 210.753906 L 243.324219 187.519531 "/>
<path style="fill:none;stroke-width:1.2;stroke-linecap:butt;stroke-linejoin:miter;stroke:rgb(0%,0%,0%);stroke-opacity:1;stroke-miterlimit:10;" d="M 243.324219 187.519531 L 226.628906 169.964844 "/>
<path style="fill:none;stroke-width:1.2;stroke-linecap:butt;stroke-linejoin:miter;stroke:rgb(0%,0%,0%);stroke-opacity:1;stroke-miterlimit:10;" d="M 237.523438 189.691406 L 224.167969 175.648438 "/>
<path style="fill:none;stroke-width:1.2;stroke-linecap:butt;stroke-linejoin:miter;stroke:rgb(0%,0%,100%);stroke-opacity:1;stroke-miterlimit:10;" d="M 162.835938 163.769531 L 154.488281 154.992188 "/>
<path style="fill:none;stroke-width:1.2;stroke-linecap:butt;stroke-linejoin:miter;stroke:rgb(0%,0%,0%);stroke-opacity:1;stroke-miterlimit:10;" d="M 154.488281 154.992188 L 146.140625 146.214844 "/>
<path style=" stroke:none;fill-rule:nonzero;fill:rgb(100%,100%,100%);fill-opacity:1;" d="M 155.835938 158.269531 L 169.835938 158.269531 L 169.835938 169.269531 L 155.835938 169.269531 Z M 155.835938 158.269531 "/>
<g style="fill:rgb(0%,0%,100%);fill-opacity:1;">
  <use xlink:href="#glyph0-1" x="155.835938" y="166.932617"/>
  <use xlink:href="#glyph0-2" x="162.813477" y="166.932617"/>
</g>
<path style="fill:none;stroke-width:1.2;stroke-linecap:butt;stroke-linejoin:miter;stroke:rgb(0%,0%,0%);stroke-opacity:1;stroke-miterlimit:10;" d="M 148.875 147.023438 L 152.304688 135.40625 "/>
<path style="fill:none;stroke-width:1.2;stroke-linecap:butt;stroke-linejoin:miter;stroke:rgb(100%,0%,0%);stroke-opacity:1;stroke-miterlimit:10;" d="M 152.304688 135.40625 L 155.730469 123.789062 "/>
<path style="fill:none;stroke-width:1.2;stroke-linecap:butt;stroke-linejoin:miter;stroke:rgb(0%,0%,0%);stroke-opacity:1;stroke-miterlimit:10;" d="M 143.410156 145.410156 L 146.835938 133.792969 "/>
<path style="fill:none;stroke-width:1.2;stroke-linecap:butt;stroke-linejoin:miter;stroke:rgb(100%,0%,0%);stroke-opacity:1;stroke-miterlimit:10;" d="M 146.835938 133.792969 L 150.265625 122.175781 "/>
<path style="fill:none;stroke-width:1.2;stroke-linecap:butt;stroke-linejoin:miter;stroke:rgb(0%,0%,0%);stroke-opacity:1;stroke-miterlimit:10;" d="M 146.140625 146.214844 L 134.367188 149.054688 "/>
<path style="fill:none;stroke-width:1.2;stroke-linecap:butt;stroke-linejoin:miter;stroke:rgb(100%,0%,0%);stroke-opacity:1;stroke-miterlimit:10;" d="M 134.367188 149.054688 L 122.59375 151.894531 "/>
<path style=" stroke:none;fill-rule:nonzero;fill:rgb(100%,100%,100%);fill-opacity:1;" d="M 148.996094 117.480469 L 156.996094 117.480469 L 156.996094 128.480469 L 148.996094 128.480469 Z M 148.996094 117.480469 "/>
<g style="fill:rgb(100%,0%,0%);fill-opacity:1;">
  <use xlink:href="#glyph0-3" x="148.996094" y="126.143555"/>
</g>
<path style="fill:none;stroke-width:1.2;stroke-linecap:butt;stroke-linejoin:miter;stroke:rgb(100%,0%,0%);stroke-opacity:1;stroke-miterlimit:10;" d="M 122.59375 151.894531 L 114.246094 143.117188 "/>
<path style="fill:none;stroke-width:1.2;stroke-linecap:butt;stroke-linejoin:miter;stroke:rgb(0%,0%,0%);stroke-opacity:1;stroke-miterlimit:10;" d="M 114.246094 143.117188 L 105.898438 134.339844 "/>
<path style=" stroke:none;fill-rule:nonzero;fill:rgb(100%,100%,100%);fill-opacity:1;" d="M 118.59375 146.394531 L 126.59375 146.394531 L 126.59375 157.394531 L 118.59375 157.394531 Z M 118.59375 146.394531 "/>
<g style="fill:rgb(100%,0%,0%);fill-opacity:1;">
  <use xlink:href="#glyph0-3" x="118.59375" y="155.057617"/>
</g>
<path style="fill:none;stroke-width:1.2;stroke-linecap:butt;stroke-linejoin:miter;stroke:rgb(0%,0%,0%);stroke-opacity:1;stroke-miterlimit:10;" d="M 105.898438 134.339844 L 82.347656 140.023438 "/>
<path style="fill:none;stroke-width:1.2;stroke-linecap:butt;stroke-linejoin:miter;stroke:rgb(0%,0%,0%);stroke-opacity:1;stroke-miterlimit:10;" d="M 82.347656 140.023438 L 65.65625 122.46875 "/>
<path style="fill:none;stroke-width:1.2;stroke-linecap:butt;stroke-linejoin:miter;stroke:rgb(0%,0%,0%);stroke-opacity:1;stroke-miterlimit:10;" d="M 76.550781 142.195312 L 63.195312 128.152344 "/>
<path style="fill:none;stroke-width:1.2;stroke-linecap:butt;stroke-linejoin:miter;stroke:rgb(0%,0%,0%);stroke-opacity:1;stroke-miterlimit:10;" d="M 75.492188 163.257812 L 82.347656 140.023438 "/>
<path style="fill:none;stroke-width:1.2;stroke-linecap:butt;stroke-linejoin:miter;stroke:rgb(0%,0%,0%);stroke-opacity:1;stroke-miterlimit:10;" d="M 65.65625 122.46875 L 42.105469 128.148438 "/>
<path style="fill:none;stroke-width:1.2;stroke-linecap:butt;stroke-linejoin:miter;stroke:rgb(0%,0%,0%);stroke-opacity:1;stroke-miterlimit:10;" d="M 42.105469 128.148438 L 35.25 151.382812 "/>
<path style="fill:none;stroke-width:1.2;stroke-linecap:butt;stroke-linejoin:miter;stroke:rgb(0%,0%,0%);stroke-opacity:1;stroke-miterlimit:10;" d="M 46.886719 132.085938 L 41.402344 150.671875 "/>
<path style="fill:none;stroke-width:1.2;stroke-linecap:butt;stroke-linejoin:miter;stroke:rgb(0%,0%,0%);stroke-opacity:1;stroke-miterlimit:10;" d="M 35.25 151.382812 L 51.945312 168.9375 "/>
<path style="fill:none;stroke-width:1.2;stroke-linecap:butt;stroke-linejoin:miter;stroke:rgb(0%,0%,0%);stroke-opacity:1;stroke-miterlimit:10;" d="M 51.945312 168.9375 L 75.492188 163.257812 "/>
<path style="fill:none;stroke-width:1.2;stroke-linecap:butt;stroke-linejoin:miter;stroke:rgb(0%,0%,0%);stroke-opacity:1;stroke-miterlimit:10;" d="M 52.960938 162.828125 L 71.800781 158.285156 "/>
</g>
</svg>

<svg xmlns="http://www.w3.org/2000/svg" xmlns:xlink="http://www.w3.org/1999/xlink" width="300pt" height="300pt" viewBox="0 0 300 300"><defs><symbol overflow="visible"><path d="M.453 1.594v-7.938h4.5v7.938zm.5-.5h3.5v-6.938h-3.5zm0 0"/></symbol><symbol overflow="visible" id="a"><path d="M.89-6.563H2.08l2.906 5.485v-5.484h.86V0H4.656L1.75-5.484V0H.89zm0 0"/></symbol><symbol overflow="visible" id="b"><path d="M.89-6.563h.876v2.688H5v-2.688h.89V0H5v-3.125H1.766V0H.89zm0 0"/></symbol><symbol overflow="visible" id="c"><path d="M3.547-5.953c-.65 0-1.164.242-1.547.72-.375.48-.563 1.13-.563 1.952 0 .835.188 1.49.563 1.967.383.48.898.72 1.547.72.644 0 1.156-.24 1.53-.72.376-.476.564-1.132.564-1.968 0-.822-.187-1.474-.562-1.954-.375-.477-.887-.72-1.53-.72zm0-.734c.914 0 1.648.312 2.203.937.55.617.828 1.438.828 2.47 0 1.042-.277 1.87-.828 2.483-.555.617-1.29.922-2.203.922-.93 0-1.668-.305-2.22-.922C.774-1.41.5-2.237.5-3.28c0-1.033.273-1.853.828-2.47.55-.625 1.29-.938 2.22-.938zm0 0"/></symbol></defs><g><path fill="#fff" d="M0 0h300v300H0z"/><path d="M264.75 83.566l-11.773 2.84" stroke-width="1.2" stroke="#000" stroke-miterlimit="10" fill="none"/><path d="M252.977 86.406l-11.778 2.84M241.2 89.246l-3.427 11.617" stroke-width="1.2" stroke="#00f" stroke-miterlimit="10" fill="none"/><path d="M237.773 100.863l-3.43 11.617" stroke-width="1.2" stroke="#000" stroke-miterlimit="10" fill="none"/><path d="M234.2 83.746h14v11h-14zm0 0" fill="#fff"/><g fill="#00f"><use xlink:href="#a" x="234.199" y="92.409"/><use xlink:href="#b" x="241.177" y="92.409"/></g><path d="M232.28 114.445l8.345 8.778" stroke-width="1.2" stroke="#000" stroke-miterlimit="10" fill="none"/><path d="M240.625 123.223l8.348 8.777" stroke-width="1.2" stroke="#f00" stroke-miterlimit="10" fill="none"/><path d="M236.41 110.516l8.348 8.777" stroke-width="1.2" stroke="#000" stroke-miterlimit="10" fill="none"/><path d="M244.758 119.293l8.347 8.777" stroke-width="1.2" stroke="#f00" stroke-miterlimit="10" fill="none"/><path d="M210.797 118.16l24.55-1.523-2.003-8.313zm0 0"/><path d="M247.04 124.535h8v11h-8zm0 0" fill="#fff"/><use xlink:href="#c" x="247.039" y="133.198" fill="#f00"/><path d="M210.797 118.16l-23.234-6.855M193.242 134.855l17.555-16.695" stroke-width="1.2" stroke="#000" stroke-miterlimit="10" fill="none"/><path d="M193.242 134.855m-.187-2.996l-1.012.245m.828-3.238l-2.026.488m1.84-3.484l-3.043.735m2.856-3.726l-4.055.975m3.873-3.972l-5.07 1.222m4.882-4.214l-6.082 1.465m5.898-4.46l-7.096 1.71m6.91-4.703l-8.11 1.957m8.07-2.555l-8.308 2.004" stroke="#000" stroke-miterlimit="10" fill="none"/><path d="M193.242 134.855l-6.855 23.235" stroke-width="1.2" stroke="#000" stroke-miterlimit="10" fill="none"/><path d="M186.387 158.09m1.656 2.5l.758-.72m.903 3.22l1.508-1.438m.15 3.938l2.265-2.156m-.605 4.656l3.02-2.875m-1.364 5.375l3.777-3.594m-2.117 6.094l4.53-4.31m-2.874 6.81l5.29-5.028m-3.634 7.528l6.047-5.746m-5.715 6.246l6.196-5.89" stroke="#000" stroke-miterlimit="10" fill="none"/><path d="M186.387 158.09l-11.778 2.84" stroke-width="1.2" stroke="#000" stroke-miterlimit="10" fill="none"/><path d="M174.61 160.93l-11.774 2.84" stroke-width="1.2" stroke="#00f" stroke-miterlimit="10" fill="none"/><path d="M203.078 175.645l-6.855 23.234M207.86 179.582l-5.485 18.586M226.63 169.965l-23.552 5.68M196.223 198.88l16.695 17.554M212.918 216.434l23.55-5.68M213.938 210.324l18.84-4.543M236.47 210.754l6.854-23.234M243.324 187.52l-16.695-17.555M237.523 189.69l-13.355-14.042" stroke-width="1.2" stroke="#000" stroke-miterlimit="10" fill="none"/><path d="M162.836 163.77l-8.348-8.778" stroke-width="1.2" stroke="#00f" stroke-miterlimit="10" fill="none"/><path d="M154.488 154.992l-8.347-8.777" stroke-width="1.2" stroke="#000" stroke-miterlimit="10" fill="none"/><path d="M155.836 158.27h14v11h-14zm0 0" fill="#fff"/><g fill="#00f"><use xlink:href="#a" x="155.836" y="166.933"/><use xlink:href="#b" x="162.813" y="166.933"/></g><path d="M148.875 147.023l3.43-11.617" stroke-width="1.2" stroke="#000" stroke-miterlimit="10" fill="none"/><path d="M152.305 135.406l3.425-11.617" stroke-width="1.2" stroke="#f00" stroke-miterlimit="10" fill="none"/><path d="M143.41 145.41l3.426-11.617" stroke-width="1.2" stroke="#000" stroke-miterlimit="10" fill="none"/><path d="M146.836 133.793l3.43-11.617" stroke-width="1.2" stroke="#f00" stroke-miterlimit="10" fill="none"/><path d="M146.14 146.215l-11.773 2.84" stroke-width="1.2" stroke="#000" stroke-miterlimit="10" fill="none"/><path d="M134.367 149.055l-11.773 2.84" stroke-width="1.2" stroke="#f00" stroke-miterlimit="10" fill="none"/><path d="M148.996 117.48h8v11h-8zm0 0" fill="#fff"/><use xlink:href="#c" x="148.996" y="126.144" fill="#f00"/><path d="M122.594 151.895l-8.348-8.778" stroke-width="1.2" stroke="#f00" stroke-miterlimit="10" fill="none"/><path d="M114.246 143.117l-8.348-8.777" stroke-width="1.2" stroke="#000" stroke-miterlimit="10" fill="none"/><path d="M118.594 146.395h8v11h-8zm0 0" fill="#fff"/><use xlink:href="#c" x="118.594" y="155.058" fill="#f00"/><path d="M105.898 134.34l-23.55 5.683M82.348 140.023L65.656 122.47M76.55 142.195l-13.355-14.043M75.492 163.258l6.856-23.235M65.656 122.47l-23.55 5.678M42.105 128.148l-6.855 23.235M46.887 132.086l-5.485 18.586M35.25 151.383l16.695 17.554M51.945 168.938l23.547-5.68M52.96 162.828l18.84-4.543" stroke-width="1.2" stroke="#000" stroke-miterlimit="10" fill="none"/></g></svg>
